/* XPM */
static char *_0ba75e4b6764ff8a6d90f371097d8eepxACt1qL2ktZjqSe[] = {
/* columns rows colors chars-per-pixel */
"50 50 244 2 ",
"   c #121A1E",
".  c #181E26",
"X  c #18272B",
"o  c #152B33",
"O  c #19353A",
"+  c #0A2832",
"@  c #262B2B",
"#  c #2B332C",
"$  c #2A342A",
"%  c #232C35",
"&  c #2B3434",
"*  c #2C3B36",
"=  c #2D3D3B",
"-  c #243637",
";  c #323C34",
":  c #323D3C",
">  c #363735",
",  c #35392D",
"<  c #433936",
"1  c #2E423E",
"2  c #33423C",
"3  c #3B443B",
"4  c #44443C",
"5  c #1A3947",
"6  c #153C52",
"7  c #283C48",
"8  c #353D43",
"9  c #233C55",
"0  c #1A424C",
"q  c #1B4A5B",
"w  c #0F4350",
"e  c #2A4448",
"r  c #344443",
"t  c #3A4543",
"y  c #354B44",
"u  c #3C4B45",
"i  c #3B454B",
"p  c #354B4B",
"a  c #3B4C4B",
"s  c #33454B",
"d  c #3B534D",
"f  c #35514C",
"g  c #294757",
"h  c #3C4C53",
"j  c #334A55",
"k  c #2B5259",
"l  c #335254",
"z  c #3B5452",
"x  c #34535B",
"c  c #3B535A",
"v  c #3C5B5B",
"b  c #3A5A55",
"n  c #3E625C",
"m  c #274B62",
"M  c #364D65",
"N  c #2B5465",
"B  c #2D5C6C",
"V  c #285469",
"C  c #375A67",
"Z  c #2D5C73",
"A  c #365C74",
"S  c #3B6468",
"D  c #2C6379",
"F  c #3D6472",
"G  c #3D6C7A",
"H  c #376778",
"J  c #3E757C",
"K  c #3E756F",
"L  c #1D4D64",
"P  c #434D45",
"I  c #444D4C",
"U  c #4B4E4B",
"Y  c #494944",
"T  c #45524C",
"R  c #4A534C",
"E  c #47554A",
"W  c #54564A",
"Q  c #464D53",
"!  c #594E54",
"~  c #445453",
"^  c #4B5555",
"/  c #445A54",
"(  c #4B5A54",
")  c #43555A",
"_  c #445B5B",
"`  c #4B5C5C",
"'  c #4B565A",
"]  c #565857",
"[  c #54484A",
"{  c #64575A",
"}  c #67524E",
"|  c #48635B",
" . c #56635B",
".. c #5A614F",
"X. c #63635B",
"o. c #6B6356",
"O. c #435C63",
"+. c #475D66",
"@. c #575D65",
"#. c #675963",
"$. c #7C5C69",
"%. c #446364",
"&. c #4C6363",
"*. c #4D6A64",
"=. c #44646B",
"-. c #4D6C6A",
";. c #466668",
":. c #536363",
">. c #546A65",
",. c #546B6B",
"<. c #5B6D6B",
"1. c #596668",
"2. c #5C716C",
"3. c #54736A",
"4. c #436C74",
"5. c #476977",
"6. c #556B73",
"7. c #44737B",
"8. c #4C737A",
"9. c #4C7475",
"0. c #587677",
"q. c #497166",
"w. c #646A68",
"e. c #786569",
"r. c #676D73",
"t. c #786A74",
"y. c #667677",
"u. c #767579",
"i. c #6B726E",
"p. c #835B68",
"a. c #876878",
"s. c #8E6D75",
"d. c #75837B",
"f. c #47847F",
"g. c #3B6C84",
"h. c #356C83",
"j. c #3A7589",
"k. c #3A7A93",
"l. c #2E6D85",
"z. c #447283",
"x. c #497988",
"c. c #577B89",
"v. c #48768F",
"b. c #697C81",
"n. c #777787",
"m. c #8B7683",
"M. c #967785",
"N. c #97738A",
"B. c #A87788",
"V. c #AF778F",
"C. c #3C869B",
"Z. c #3D8EA3",
"A. c #568588",
"S. c #4C8395",
"D. c #4C8A9C",
"F. c #478597",
"G. c #558998",
"H. c #599299",
"J. c #4D8C92",
"K. c #668787",
"L. c #768484",
"P. c #668995",
"I. c #679599",
"U. c #789598",
"Y. c #60918D",
"T. c #488CA5",
"R. c #578DA4",
"E. c #4D94A8",
"W. c #5594A3",
"Q. c #5299AC",
"!. c #5C9BAB",
"~. c #5996A7",
"^. c #4D9BB3",
"/. c #559CB3",
"(. c #579CB5",
"). c #638BA2",
"_. c #6698A9",
"`. c #699BB4",
"'. c #7896A7",
"]. c #5EA2AE",
"[. c #5CA3B4",
"{. c #59A5BB",
"}. c #49A0B3",
"|. c #67A2AE",
" X c #79A5AA",
".X c #68A7B7",
"XX c #77A8B8",
"oX c #75B1BB",
"OX c #5DADC3",
"+X c #5DA7C0",
"@X c #5CB4C7",
"#X c #69ACC3",
"$X c #73ADC3",
"%X c #67B6C9",
"&X c #74B6C9",
"*X c #69B9D1",
"=X c #75BCD4",
"-X c #7BBDD4",
";X c #6CC3D4",
":X c #68C4D5",
">X c #79C6D8",
",X c #6BD3DC",
"<X c #75D6DE",
"1X c #70C1CD",
"2X c #7BCAE2",
"3X c #7BD7E3",
"4X c #6FD5E3",
"5X c #7BE7EA",
"6X c #968189",
"7X c #919096",
"8X c #B28395",
"9X c #8A9FA2",
"0X c #85A4A8",
"qX c #8FAFB7",
"wX c #CA8AA3",
"eX c #D993B0",
"rX c #E5A2BA",
"tX c #D596AC",
"yX c #88B9C7",
"uX c #91BBC8",
"iX c #A1BEC6",
"pX c #95C2CA",
"aX c #87C9D9",
"sX c #87D4DE",
"dX c #91C7D4",
"fX c #A7CBD3",
"gX c #A5C6CD",
"hX c #85CCE3",
"jX c #88D7E6",
"kX c #96D4E2",
"lX c #8CDCF2",
"zX c #A8D9E4",
"xX c #89E3EB",
"cX c #94E7EE",
"vX c #89E7F4",
"bX c #99EAF5",
"nX c #9BF4FD",
"mX c #A4ECF6",
"MX c #B8EAFE",
"NX c #A9F9FE",
"BX c #B2FDFF",
"VX c #B5F6FF",
"CX c #C5F6FF",
"ZX c #F3A9CA",
/* pixels */
"fX0.O.) ` ( I R E ( E E / / ( ~ ~ ( ' ^ ^ ( ] I L.1.Q ' ' ' Q ` l b T W W R ~ ~ z ~ ] ] W ( ` z 0.qX",
"0.9.e O r T 3 ; 3 2 2 2 2 2 r r t t 2 : # # ; # : * & @ & & ; - S %.- # 3 4 4 3 2 t > > P y - %.v *.",
"l l ;.2.p ~ <. .] X.w.1. . .w.1. . .3 3 , ; , , $ $ @ ; ; $ # u I.I.f P ] W } } W R X.W T d.9.9.e t ",
"O.O U.qXa - ~ ] ] ! { X.{ ] ] ]  .( 3 ; P u d d / / p a u t ; = 8.H.v ; 4 } o.} ....W 3 y K.A.0.= P ",
"i 8 h &.v e X @.u.e.s.s.t.] ] 1. .E  .&.6.A.XX_.G.G._. Xc.,.:.( -.6.:.X.o.p.s.s.o.d.W $ 3 d.L.y.; U ",
"] 8 p 0.0.A.,.i t.a.B.M.e.{ ] ` ( ( _ ;.5 |.aXQ.=X#X$XdXk j ~ ` +.' ] [ } p.B.B.t.w.4 Y 4 Y ] R $ T ",
"I - -.Y.7.A.Y.) s.B.wXwXB.6Xu.w.1.i.:.-.0 oXhX^.2X*XT.R.+ =.&.1.2.:.i.t.B.B.eXwXN.u.U 4 < , 4 4 2 E ",
"I r 0.K Y.f.0.,.m.B.rXrXV.e.] 1.:.&.,.=.z.G.#X{.T.(.T.G.7.8.O.-.&.>. .W s.B.ZXeXN.m.! 4 4 4 R E $ P ",
"T - ;. XJ H.K.h t.p.B.8Xa.! w.:.=.=.=.4.7.H G H j.j.j.h.G G F 4.G K %./ [ s.V.V.a.t.Y U Y R ( d 2 P ",
"P a z x A.7.g c r.{ M.M.#.i.w.6.c.G.H.G.H.H.H.G.!.W.D.D.~.W.R.S.J.J.K 0.! #.V.s.{ u.R T ] :.&.&.: P ",
"U ; = 7 O %.x +.r.U i.i.' _ v pXkXaXaXaXkXkXsXkXkXkXaXhXhX>XhXaXaXzXA.n 1.[ e.#.] w./ / I 1.6.c : I ",
"U P : b.9Xj 0.,.<.' 1.>.&._ S pXF.Q.Q.Q.W.W.W.~.[.[././.[.[./.Q.C.oX XS ` R w.w.~ 2.>.>.u L.qX6.: I ",
"E - d U.iXO.0X0.2.a <.<.&.;.0.qXx.$X|.~.G.H._.!.!.!.|.W.W.W.W..X.X|.oX%.` ] 1.` I y.:.>.t ' 0.l = P ",
"E 2 f e g C K.c y.r 2.>._ v 5.pXG._.q w m F G D H B H H B w 5 J !.|. Xv :.( :.:.~ <.d <.a z 6.p 1 I ",
"P u f S 9.k P.l 2.u w.:._ ;.F uXx._.k k 5.8.x O x 5 5 N x.F q J ~..XXXv ' T 3.| ~ 2.T <.r b.uXx 2 T ",
"R ; p U.pXS Y.l <.u 1.<.z %.7.yXS._.N F 4.e - &.b.0.g 5 C 7.A G ~.|. Xv ` ~ 3.| z 1.d y.r y.gXk 2 P ",
"] 8 I ~ T a U.l <.t 2.,.~ %.F dXF.~.B 5.g O &.:.i i b.j 0 F G z._.|. Xx | d 3.| b ,.~ <.: b.gXk = P ",
"Q : ` r # R U.l w.U r.r.` ` C yXD.W.m C 0 %.+.X     7 0.g F F 7.R._.XXC ` R y.>.~ <.` y.> u.iXC = P ",
"T y | *.3 (  X%.u.! m.6X#.@.8.yXS._.N +.5 %.s   . . X 6.x =.A z._._. XO.! { 6Xa.{ n.] y.u ,.K.x 2 P ",
"d y b | ; u  X_ t.$.B.V.a.w.8.pXS.`.N 5.x O.7   @ X o +.x =.A z.~.|. X@.#.p.8Xs.p.a.] u.t ,.U.l 2 R ",
"d O d u > U U.1.m.B.wXeXV.t.6.pXG.~.B 5.e =.s . % . o 6.9 C F z.~..X X1.a.V.tXwXB.N.] r.r K.fX%.1 P ",
"d y / u < ! 7X@.7XB.eXrX8Xa.0.yXG.!.A 5.0 4.e X - % + 5.g C 5.x.]..X X@.m.V.rXrXV.8X@.<.p K.gXO.= P ",
"| d.2.3 > { 9X) t.$.V.8XM.r.5.dXD._.B z.4.c.x + X o 5 8.4.z.G g.|..XXX6.t.a.8XB.a.n.' y.r 2.qXx 2 T ",
"f / ( Y < [ y.` u.! m.M.#.@.8.dXD.|.V x.x.A.I.o O o C I.7.A.H x.|.|.XX=.#.{ 6Xa.! n.~ 2.r ,.P.C 1 P ",
"d * R ] Y > : ~ r.^ L.u.] +.x.dXD.!.B F A.7.P.e O o 8.8.x.G B j.]..XXX4.:.@.u.r.' y.z p = L.iXc = T ",
"a 2 4 Y 3 : = ~ r.a :.,.&.=.7.yXW.|.q A 7.x.A.0 5 O 7.7.G H m g..XoXoX4.+.:.<.,.O.0.>.>.: L.gXx r R ",
"~ : > Y ( | a a r.h *.,.&.O.7.dX~.|.q B 7.x.c.g 9 9 x.c.z.H m x..X.XoX4.%.*.-.-.%.0.~ u 3 y.qXx 1 I ",
"I t P w.>.%.>.1.y.h *.%.O.4.x.dX~..XV A x.x.G.N g g c.S.x.G V S.$X#X&X7.=.| -.n j y.~ ^ U y.0Xl r R ",
"~ *  .| q.A.b 3.0.e -.-.x 4.S.aX!..XD g.S.S.R.Z m m G.S.v.g.D R.&X&X&XJ 4.v 9.v j b.` 2 d.y.0Xl r T ",
"~ = T 3.n %.0.z 0.7 3.0.S G J.sX[.#XD j.D.E.W.D Z Z !.R.R.v.l.T.&X&X&Xx.8.C K.,.j y.~ / P 2.0Xv - I ",
"I t 2 u 2._ _ _ y.s &.0.=.7.H.aX{.%Xj.T.^./.[.j.h.l.{.(.(.E.k.E.=X-X=XJ.7.%.0.-.c 0._ d 2 y.U.l = T ",
"' & T P ~ : r r.6.C -.9.S H W.hXOX*XT.Q.OX{.%XC.F.k.+X+X(.{.T.{.=X=X1XD.G =.9.=.;.6.3.f 1 2.0Xz 1 T ",
"I * T | : u :.` k 4.7.z.x.F.Q.jX@X;X^.OX@X*X*X^.^.^.@X;X%X*X@X@X=X>X&XE.S.x.J G =.x 0.-.e %.U.l 1 P ",
"I r ~ 2.t w.1.h =.H G.F.D.Q.[.jX*X>X%X;X%X1X>X{.{.{.>X2X;X;X@X>X>XaX>XQ.~.S.G.A.S %.v -.;.;.U.) * P ",
"z e r ` y.:.~ _ 5.G !.!.W.|..XjX1XjX1X>X&X>XjX>X>X>XjX>X1X;X%XsXsXsX>X[.|.D.S.G.5.;.) a >.0.0.z 1 T ",
"f p ` r ,.z _ O.g 7.G.D.F.[.&XbXjXNXmXmXmXmXmXNXBXmXmXbXbXbXcXNXcXbXbX%XT.W.G.x.=.x 1.I | &.e y.2 T ",
"d 2.y.p ,._ %.8.5.5._.!.[.1XNXNXNXBXBXBXBXBXNXNXBXBXNXBXBXNXBXNXNXNXNXbX%XQ.D.G.5.6.r.@.>.| z L.y ~ ",
"T - d f l l S q N F z.D..XNXvX<XnXxXcXcXsXcXbXjXbXbXjXcXbX<XcXxXsXbX3XvXnX[.j.D N c Q > a | y y 2 ~ ",
"R * t r 0.I.I.N m Z g.`.BXjX:XxX<X,XvX3X3XvX5X,XvXxX,X3XvX,X3XvX;X;XvX;XvXbXW.H N 9 8 8 a | 2 T & a ",
"P 3 t r K.pXuXx.V g..XVXjXOX3X3X@X4XlX:X,XvX,X,XvXlX:X,XvX:X@XlX3XOX*X3XOXjXmX~.H m j 8 z | u T : T ",
"( * P r O.P.A.H Z $XNX2X^.;XhX{.OXvX%X%X2XlX;X;XlXhX*X;XlX;X%X%XlX%X}.%X>X/.hXVXR.V k g p +.& I 3 T ",
"E ; t I e e H D $XVX=XC.OX2XE.E.=X=X(.(.>X>X+X+XhX2X#X+X>X>X/./.=X>XZ.C.$X-Xk.-XVX.XA g g ) 8 : & u ",
"R ; u - 7 g B XXVX.Xk.T.>XT.k.R.aX/.T.E.aX.X/.Q.>X=XQ.T..XaXT.F.T.-XQ.j.g.$X(.l.$XMX$XV M j % Q & P ",
"U # ` s j N yXCX!.H h.&Xk.D v.`..Xk.j.T.aXF.F.F.&X#XF.F.R.yXR.v.j.`.#Xh.H H .XD.D XXCXyXA k 7 8 & u ",
"Q % s g N yXCXR.Z B `.).V A j.yXz.H H W.$Xg.v.z.XX.Xg.v.z.XX_.H H H XXv.A m Z .Xg.L _.MXyXA g g - u ",
"Q 8 c C dXCXc.m m c.'.6 M m `.G.m C V _.).A 5.A .XXXH z.A ).XXV A V c.XXm m g G `.Z V G.MXdXA x - I ",
"O.5 S pXCXz.m 6 m '.9 9 9 M _.B 9 g m _.F g M m R.R.q m m A `.V g g 5 I.5.5 5 5 5.c.9 9 z.MXdXF 7 I ",
"k k zXCX7.g M C '.M 7 j 7 '.P.g j j C qXO.g M m _.).g M M M 0Xc.j g g =.0Xc 7 g 9 P.n.g N G CXzXl ) ",
"H _.fX5.c c O.=.,.h Q i ' 0._ h h h ' <.Q i i j P.c.h i I ~ 1.6.h i 8 ) 6.:.i s s s y.,.j x 5.gX'.7.",
"kX_.C j ~ r 7 e r 8 8 ; = r 8 8 8 * * * @ # & o =.O.% # # @ & & : 8 : : r 8 : r i t r r i s s C ).kX"
};
