/* XPM */
static char *a009beba032c4ca8dafcbb5ee5468fcdE1ZNyW8h9nrMLsok[] = {
/* columns rows colors chars-per-pixel */
"50 50 179 2 ",
"   c #000833",
".  c #000934",
"X  c #000A35",
"o  c #000B36",
"O  c #000C37",
"+  c #000B38",
"@  c #000D38",
"#  c #000E39",
"$  c #010C3A",
"%  c #000D3A",
"&  c #020D3B",
"*  c #000E3A",
"=  c #000F3A",
"-  c #000E3B",
";  c #000F3B",
":  c #010F3C",
">  c #00103B",
",  c #03123B",
"<  c #041239",
"1  c #07153A",
"2  c #00113C",
"3  c #00113D",
"4  c #00123D",
"5  c #00103E",
"6  c #00133E",
"7  c #02133F",
"8  c #04113E",
"9  c #05123F",
"0  c #06133F",
"q  c #00143F",
"w  c #01143F",
"e  c #06153C",
"r  c #05143F",
"t  c #04163E",
"y  c #09183F",
"u  c #001340",
"i  c #011341",
"p  c #061340",
"a  c #001441",
"s  c #031440",
"d  c #021540",
"f  c #031641",
"g  c #031543",
"h  c #011643",
"j  c #021742",
"k  c #061441",
"l  c #071641",
"z  c #051642",
"x  c #041742",
"c  c #061743",
"v  c #021744",
"b  c #091442",
"n  c #081542",
"m  c #081742",
"M  c #0A1744",
"N  c #0C1745",
"B  c #0E1645",
"V  c #051843",
"C  c #061943",
"Z  c #041944",
"A  c #061944",
"S  c #051A45",
"D  c #071A45",
"F  c #091841",
"G  c #0A1942",
"H  c #091B43",
"J  c #0D1C43",
"K  c #0A1944",
"L  c #0A1845",
"P  c #0B1A45",
"I  c #0B1946",
"U  c #081B46",
"Y  c #0A1B47",
"T  c #091C47",
"R  c #0A1D47",
"E  c #0E1D46",
"W  c #061B48",
"Q  c #061C4B",
"!  c #071C4B",
"~  c #011B4C",
"^  c #071D4E",
"/  c #041F4E",
"(  c #081D48",
")  c #0B1C48",
"_  c #0A1D48",
"`  c #081F49",
"'  c #0B1E49",
"]  c #081D4A",
"[  c #0B1D4B",
"{  c #091E4B",
"}  c #081F4B",
"|  c #0A1F4A",
" . c #0C1D49",
".. c #0E1C49",
"X. c #0C1F49",
"o. c #0F1D4A",
"O. c #0C1F4A",
"+. c #0E1F4B",
"@. c #081E4D",
"#. c #091F4E",
"$. c #081E4F",
"%. c #0C1E4C",
"&. c #0D1F4D",
"*. c #101E4B",
"=. c #052149",
"-. c #07244C",
";. c #0A2049",
":. c #08214A",
">. c #0B204B",
",. c #09224B",
"<. c #0D204B",
"1. c #0F204B",
"2. c #09214D",
"3. c #0B204D",
"4. c #0B204F",
"5. c #0B224E",
"6. c #0C214C",
"7. c #0E214C",
"8. c #0D224D",
"9. c #0C234D",
"0. c #0F224C",
"q. c #0F224D",
"w. c #0D224F",
"e. c #0E234E",
"r. c #08244C",
"t. c #09264E",
"y. c #0F244F",
"u. c #0E254F",
"i. c #0D264F",
"p. c #08284F",
"a. c #10214D",
"s. c #11224E",
"d. c #10234E",
"f. c #12234F",
"g. c #11244E",
"h. c #11244F",
"j. c #13244F",
"k. c #062456",
"l. c #0C2251",
"z. c #0E2350",
"x. c #0D2352",
"c. c #0E2352",
"v. c #0D2551",
"b. c #0F2451",
"n. c #0C2452",
"m. c #0F2453",
"M. c #0A2656",
"N. c #0C2454",
"B. c #0F2556",
"V. c #0D2951",
"C. c #0F2851",
"Z. c #0E2A52",
"A. c #0D2855",
"S. c #102252",
"D. c #132450",
"F. c #122550",
"G. c #112651",
"H. c #132651",
"J. c #102753",
"K. c #142550",
"L. c #142551",
"P. c #142751",
"I. c #142752",
"U. c #162753",
"Y. c #102655",
"T. c #132853",
"R. c #152852",
"E. c #152853",
"W. c #142954",
"Q. c #162954",
"!. c #152A55",
"~. c #172A55",
"^. c #182955",
"/. c #182B56",
"(. c #192C57",
"). c #1A2D58",
"_. c #1B2E59",
"`. c #1F325D",
"'. c #21345F",
/* pixels */
"_ w q.~.D V q.U D H.I.U d _ q.U _._ x _ _ x _ _.D <._ V _ ~.I.D O.D V <.H.d._ U D T q.H.q.D D _ ~ k.",
"w T d.I.h.D 2 x <.H.H._ d d U q.~.d.U d d U d.~.O.D 2 d O.I.H._ x w V d.~.H.T d d U h.~.h.D d d ^ M.",
"O q.h.h./.D   w h.h.H.q.d = x H.H.E.O.= = O.E.H.H.d O d q.H.h.q.> > x h.(.I.U 2 2 D H./.h.V 2 > 2.H.",
"2 <.d.d.H.D = d q.q.q.<.V 2 V d.<.H.<.2 2 <.H.<.d.V 2 V q.H.h.d.2 w V q.E.H.U 2 w U d.H.q.D d w q.h.",
"O.D <.q.V U q.D T _ _ T _ <._ D T _ _ T T _ _ T U O.O.T _ <.<._ _ _ U T _ <._ U T _ _ T U T _ O.E J ",
"~.V U T 2 O._.q.V D V D d.~.q.d x d T H.H.T d x d q.I.<.D V D x H.H.O.x d D <.d.h.O.V w V <.H.I.y 1 ",
"~._ d 2 x H./.H.D 2 2 T E.~.q.V 2 d _ E.E._ d 2 D <.H.H.U 2 2 D H.E.d.x > d <.E.I.O.w > V h.E.h.H < ",
"H.H.2 . <.~.d.E._ = = O.~.H._ _ = d <.I.I.<.d = <._ d.~.O.> 2 O.q.I.H.V = w <.~.E.O.2 = D I.E.<.U > ",
"H.O.V V _ q.q.O.<.D D q.h.<.O.d.= _ H.<.<.H._ = <._ <.H.d.D D O.q.q._ U D U O.d.d.O.U D U O.q.q.O.O.",
"U _ <.<._ T U U _ O.O.T D D T _ E._ D _ _ D _ E.U U U U _ <.O.T U U _ O.<.<._ T U _ O.<.O._ T U &.2.",
"2 _ E.~.<.x w d _ I.I.D > d U T '.q.d x x d q.'.D D d 2 U E.I.T 2 d D q.E.H.T 2 2 U H.E.q.D d u 2.z.",
"= T ~./.q.d 2 2 q.~./._ 2 2 U q.H.E._ = = _ E.H.q.D 2 2 O.(.~.q.2 2 x q.~.E.T > = U E.~.q.V 2 2 z.N.",
"d T h.H.<.D d w d.h.H.q.D 2 U E.U I.d.> > d.I.U I.D 2 D d.H.h.h.d w x O.H.H._ w 2 T H.H.O.V d d S.b.",
"_ _ T _ _ _ T U <.D U q.O.V D d.O.O._ T T _ O.O.d.D V O.q.U U <._ T U T _ O._ T U _ O._ T U T _ &._ ",
"h._ V x U q.h.H.D d d T d.d._ V O.x D H.H.D x O.V _ d.q.U d d U H.h.<.U x V _ h.d._ V x U q.H.H.x x ",
"H.O.x d D q.~./.d d w V H._.q.= d w T ~.~.T w d = q.(.h.x d x x ~.~.H.U 2 w _ E.E._ w 2 T H.~./.t t ",
"H.H.2 = q.H._ I.O.2 > _ E.E.q.<.. V d.H.H.d.V . <.q.E.E._ > 2 O.I.q.E.O.. d E.<.H.I.w = d.H.O.I.*.b ",
"H.T V D U q.h.q.D D D T q.h.q.U d V _ d.d._ V d U q.h.q.T D D D q.H.q.D V D _ d.H._ D D U q.H.q.O.U ",
"<.w <.H.x U H.D x q.h.T V T _ V h.U D _ _ D U h.V _ T V T h.q.x D d.V x E.q.d q.<.w <.H.d U H.V _ O.",
"x V H./._ D U 2 T H.~._ 2 2 D _ (.q.D d d D q.(._ D 2 2 _ ~.H.T d x d O._.H.d D d x H.~.T V D 2 _ y.",
"> q.I.I.I.D = 2 h.H.H.q.d = d H.~.H.T 2 2 T H.~.H.d = d q.H.H.h.x . d ~.~.H.O.2 = q.I.H.H.D O 2 q.V.",
"2 H.d.<.~.T O x I.q.<.q.D 2 V H.d.H.O.2 2 O.H.d.H.V 2 D q.<.q.I.U O U ~.q.q.d.> 2 H.d.O.~.U O d q.y.",
"T O._ T O._ D T <._ T _ _ T _ O._ _ _ T T _ _ _ O._ T _ _ T _ <.T T _ _ T O.<.D T O._ _ <._ U _ _ _ ",
"H.d V T w _ ~.O.V U U D _ H.q.d D x U h.h.U x D d q.H._ D U U V T /.O.> D _ D h.I.d D _ d O./.<.D D ",
"E.d.D 2 x d.~.I.2 x d 2 q.`.~.> d 2 T _._.T 2 d 2 E.`.q.d V D 2 (.~.q.V 2 d <.~./.q.d 2 V q.E./.x 2 ",
"I.<.x 2 D h.E.H.O.> = _ /.E.<._ = x q.h.h.q.x = T _ H.~.O.= > _ I.H.q.D 2 d <.~.~.O.w 2 D q.I.I.U x ",
"q._ x d U d.h.<.h.2 > q.~.O.D q.2 D <.<.<.<.D 2 q.D _ E.q.2 2 q.<.q.<.U d x _ H.d.T d d T q.h.d.O.M ",
"U T _ _ _ _ T D T O.O.U D U _ T d.U D q.q.D U d.T _ U D _ q.q.T D U _ _ _ _ _ T U T _ _ _ _ T U O.O.",
"d T H.I.<.V d d D ~.(.D = d _ U _.q.D D D D q._.U _ d > T _./.D d d D <.I.H.T 2 2 T H.I.<.D d d O.d.",
"w _ I.~.q.d 2 w q.I.~.q.d > D d.I.~._ = = _ ~.I.q.x = w q./.I.O.w w V q.~.E.T > 2 _ E.~.q.x 2 2 O.I.",
"V T q.H.q.V w d H.q.q.q.D 2 D H.q.H.O.> > O.H.q.h.x 2 D q.d.q.d.w d U q.H.h.T d d T h.H.q.U d w q.y.",
"_ U T q.q.T V D q.<._ D D U _ <.d._ U _ _ U _ d.<._ U D T <.q.q.w V _ q.q.O._ T D U _ q.q.O.D d q.>.",
"H.D _ _ 2 <.(.<.x D V V <.~.d.d T d V h.h.V d T w q.E.q.U D D d <.(.<.2 _ _ D H.I.V T O.d _ /.d.x H ",
"H.q.x 2 D d.H.h.T w 2 D H.~.q.V 2 x <.I.I.<.x 2 x <.E.I.T 2 w U h.H.d.D 2 x q.H.H.<.d 2 T q.d.I.b 8 ",
"h.E.2 . <.H._ I.<.2 = T ~.E.O.U O D h.E.E.h.D O U O.I.~._ = 2 <.I._ H.<.. 2 E.h.H.I.> . q.H._ E.O.x ",
"d.q.d > O.d._ d.O.d 2 T H.H.O.U 2 D q.d.d.q.D 2 T _ d.h._ w x O.d._ d.O.> d q.d.d.q.w 2 O.q._ d.2.Q ",
"O.x _ q.D T q.U U <.<.T T O.O.U q._ U _ _ U _ q.T _ _ D T q.q.T U q.T D q._ x O._ V _ q.D T q.W Q #.",
"D 2 H._.D d O.d U I.~._ w V _ _ _.q.D V V D q._._ _ d 2 _ /.I.D d O.d D _.H.2 D V w I._.V x <.d ^ N.",
"2 D I._.q.d w d O.H.~.O.2 2 D d.~.H.T w w T H.~.q.D 2 w q./.I._ d w d q._.I.D 2 2 D E./.<.x d u z.Y.",
"= q.H.H.~.x . x h.d.h.q.d = x ~.<.H.O.2 2 O.H.<.I.d = x h.H.d.q.x . x ~.H.H.q.= = h.I.h.E.D . d z.q.",
"_ _ _ O._ _ U D _ d.q.D x T O._ _ q.O.d d O.q._ q.U d D _ q.<._ T _ _ _ O._ _ U _ _ _ _ O._ T U _ O.",
"q._ D V T O.q.q.U D D D O.d.<.D _ V U d.d.U V _ x d.H.U x _ _ d q.<._ U D D _ q.q._ V V T <.q.q.U H ",
"H._ 2 2 D q.I.E.D 2 = D E.~.<.d 2 2 _ ~.~._ 2 2 w d.(.h.V 2 d d H.H.<.V 2 d O.E.I._ 2 2 D q.I.E.H t ",
"E._ 2 > D h.E.~._ > = T /.~.<.V . V h.H.H.h.V . T T I._.<.. = <.I.H.q.V 2 2 O.~.~._ 2 > D d.E.I.H t ",
"H._ d d T q.h.q.<.x d O.H.d.O._ = U d.q.q.d.U = q.U <.~.q.2 2 d.q.d.q.U d x _ H.H._ d d T q.d.q.T V ",
"_ _ _ _ O._ T D <.<.<.<._ D _ q.q.D D <.<.D D q._ <.O.D T q.d._ T T _ _ O._ _ T _ _ _ _ _ _ T D _ _ ",
"d _ H.H.<.D d d _ H.E.<.d d U q.(.<.V D D V <.(.T _ D w T ~.E.T x d V O.H.H._ w d T h.H.<.D d v #.b.",
"> T E.~.O.d 2 d U I.(.O.2 2 D _ (.~.O.> > O.~.(.<.x 2 x q.H.h.<.d 2 w _ ~.~._ = = U T.~.>.d 2 d #.A.",
"d D H.q.H.q.2 d H.H.q.d.d = q.d.y.q.q.2 2 q.q.y._ _ > D H.q.y.q.b = q.y.V.>.d.= : d.>.V.y.q.+ p b.b.",
"V T h.O.q.<.2 D d.h.q.d.x > q.d.q.q.q.w w q.q.q.>.>.2 D H.q.y.q.B = >.-.t.=.d.8 8 H.=.p.t.>.= B &.2."
};
