/* XPM */
static char *item1_removebg_preview_1_1737041076[] = {
/* columns rows colors chars-per-pixel */
"50 50 240 2 ",
"   c #010E3A",
".  c #050C39",
"X  c #01133D",
"o  c #08143E",
"O  c #051A3E",
"+  c #120A3D",
"@  c #2D383E",
"#  c #493F3E",
"$  c #53352F",
"%  c #623135",
"&  c #37423C",
"*  c #6A432F",
"=  c #031641",
"-  c #0A1542",
";  c #061944",
":  c #091B46",
">  c #051C4A",
",  c #0B1E49",
"<  c #121E44",
"1  c #121E4B",
"2  c #161949",
"3  c #171E51",
"4  c #001E50",
"5  c #05234A",
"6  c #0D214C",
"7  c #0D2446",
"8  c #112047",
"9  c #11234E",
"0  c #1A254E",
"q  c #172D4D",
"w  c #0D2451",
"e  c #0C2A51",
"r  c #042152",
"t  c #132651",
"y  c #1B2452",
"u  c #152954",
"i  c #192A55",
"p  c #1A2E5B",
"a  c #1D3658",
"s  c #293748",
"d  c #212755",
"f  c #293759",
"g  c #393955",
"h  c #342852",
"j  c #1F2F60",
"k  c #2C3E62",
"l  c #353E63",
"z  c #323E68",
"x  c #423D53",
"c  c #36475C",
"v  c #33504E",
"b  c #2B4565",
"n  c #3A456B",
"m  c #3E4C6E",
"M  c #354868",
"N  c #2B5669",
"B  c #375668",
"V  c #3D4C72",
"C  c #295E7A",
"Z  c #365876",
"A  c #3B6C6B",
"S  c #296A7A",
"D  c #356175",
"F  c #336B7C",
"G  c #3A687E",
"H  c #3A647B",
"J  c #2B7178",
"K  c #327074",
"L  c #154867",
"P  c #4E4F52",
"I  c #6A544A",
"U  c #616554",
"Y  c #484A6A",
"T  c #485467",
"R  c #56566A",
"E  c #434E71",
"W  c #445374",
"Q  c #485876",
"!  c #545A76",
"~  c #514E63",
"^  c #665C79",
"/  c #615D6E",
"(  c #44666A",
")  c #49796B",
"_  c #456977",
"`  c #5B6973",
"'  c #497779",
"]  c #526E76",
"[  c #63676F",
"{  c #686778",
"}  c #6E7776",
"|  c #747879",
" . c #726F78",
".. c #48685B",
"X. c #944B2B",
"o. c #B76033",
"O. c #AB6C4D",
"+. c #855B4D",
"@. c #CD7841",
"#. c #2F8D7D",
"$. c #498574",
"%. c #758A79",
"&. c #CE8333",
"*. c #ED9438",
"=. c #8C8875",
"-. c #DF9B48",
";. c #F0AB58",
":. c #D1AB68",
">. c #E6B170",
",. c #CD9C60",
"<. c #FFCF56",
"1. c #F7D269",
"2. c #FCE379",
"3. c #305E83",
"4. c #1B7085",
"5. c #167391",
"6. c #296983",
"7. c #3C6B83",
"8. c #3A6A85",
"9. c #2B7485",
"0. c #257589",
"q. c #35798B",
"w. c #3A7C8D",
"e. c #367586",
"r. c #277A95",
"t. c #397D95",
"y. c #256193",
"u. c #187BA9",
"i. c #377FB1",
"p. c #436B87",
"a. c #487785",
"s. c #58748A",
"d. c #437C97",
"f. c #677C88",
"g. c #747688",
"h. c #85798D",
"j. c #148D96",
"k. c #2C848A",
"l. c #368286",
"z. c #26879A",
"x. c #398696",
"c. c #239C90",
"v. c #0FB598",
"b. c #26B492",
"n. c #1783A7",
"m. c #0B94B9",
"M. c #3594AF",
"N. c #12ADAC",
"B. c #53868C",
"V. c #468696",
"C. c #5D8697",
"Z. c #46919F",
"A. c #4A9793",
"S. c #6A8188",
"D. c #798489",
"F. c #678998",
"G. c #748696",
"H. c #739A95",
"J. c #4BAD9B",
"K. c #7BA194",
"L. c #5399A4",
"P. c #4894A1",
"I. c #6789A2",
"U. c #699EA9",
"Y. c #7D9FA1",
"T. c #46B2B6",
"R. c #75A9AE",
"E. c #28C49D",
"W. c #33C49B",
"Q. c #0FDAAF",
"!. c #15DBB5",
"~. c #17CCB7",
"^. c #2DCDAA",
"/. c #1EE3B9",
"(. c #51CD91",
"). c #68C79C",
"_. c #76D094",
"`. c #6BE298",
"'. c #72E699",
"]. c #4FCDB2",
"[. c #75D9BD",
"{. c #0998C3",
"}. c #1B9DCF",
"|. c #15B2D0",
" X c #2EB6D2",
".X c #13B0E4",
"XX c #4EB8D5",
"oX c #0BC8CD",
"OX c #31C3D8",
"+X c #24E1C3",
"@X c #18DFFB",
"#X c #10C7EC",
"$X c #1AE4FA",
"%X c #3CE9F9",
"&X c #4CC7CE",
"*X c #6ED5D4",
"=X c #75E5DE",
"-X c #46D6E7",
";X c #49D5F7",
":X c #50CFEB",
">X c #68E8F2",
",X c #6CEBF3",
"<X c #51E7E1",
"1X c #888C94",
"2X c #869696",
"3X c #999B94",
"4X c #91928B",
"5X c #A19C86",
"6X c #93A59A",
"7X c #91A9A3",
"8X c #97B8B8",
"9X c #88A9A9",
"0X c #A5B0AD",
"qX c #ABB8B2",
"wX c #B7B8B3",
"eX c #B9BAAC",
"rX c #D0BA80",
"tX c #C4BEBA",
"yX c #8ECC96",
"uX c #8EC8AE",
"iX c #B9C6B9",
"pX c #B0C8A9",
"aX c #9FE7B7",
"sX c #A4E2BB",
"dX c #FFEB92",
"fX c #DBD8B6",
"gX c #CDD2B4",
"hX c #F9F2A1",
"jX c #CFDFA0",
"kX c #BCCEC6",
"lX c #B9D0C8",
"zX c #82F1C4",
"xX c #ABFFD8",
"cX c #B5E5CD",
"vX c #8EFDFA",
"bX c #98F8F9",
"nX c #90E8EA",
"mX c #AEF3F4",
"MX c #8AD2E1",
"NX c #D0D5C2",
/* pixels */
", = 6 u > ; , : ; t t , = , 6 : p , ; , , - , p , , : ; , u u ; , ; ; 6 9 9 , ; ; ; 6 t 6 : ; , r r ",
"= : 6 t 6 : = ; , t t , = X : 9 u 6 : = ; : 6 9 , - = ; , u t : = = ; 6 u t , = X , 9 i 6 ; = = r r ",
"  6 9 t u : . X 9 t t 9 = X ; 9 t u ,     , u u u =   = , 9 6 9 X X = 9 i t , X X 6 t i t ; =   w w ",
"X , 9 9 t ;   = 9 6 6 , ; = ; 6 , t 6 = = , w , , : X = 1 u t t X = ; 6 t t , X X ; 6 9 , ; = = 9 9 ",
", ; , , ; : 6 : : , , : , , , : : : , : : , , , > , 6 , , , , > , , : , , 6 , : , , : : : : : : < : ",
"u : : : = , i 6 = ; ; > t u 6 = : = ; t u , o X = , u 8 ; ; ; > 9 9 , ; = ; , 9 9 6 ; X ; , t t o O ",
"u , = X - 9 u t ; = = : u u , ;   = , i u - X o ; < 0 0 o     : u u 9 ; X = 9 u t , o X ; y t y o o ",
"t t =   , u w u : =   , i t , ,   ; w t t y f n E E ! ! n : o , 6 t t = X = 6 u u , X   : t u , : O ",
"9 , ; ; , , 6 6 , ; O 6 , 6 w 6 X , w y < ~ 1XwXtX0X1Xg.f.n - 5 3 t , ; ; > t r 9 , , ; , 6 6 6 : 6 ",
"; , 6 6 , , ; , : , , , ; : : ; w 6 6 ; 7 m 2XiXNXK.T s T B f q 7 e : 6 w , 2 : : , 7 , , , , ; 8 , ",
"X , u u 6 = = = 6 t 8 , X ; ; : h E R { { ! [  .{ [ R ~ R R ^ ^ ! R s 9 e w : = X : u u 6 ; = = 6 w ",
"  : u i 6 = X X 6 i t , X X ; 0 ` 7XfXNXNXgXiXpXwXqXqX0X6X1X4X1Xh.f.Q f i u :   X ; t u 6 X X X w w ",
"X , 6 t 6 ; X O 6 t 9 6 ; = : M F.7XfX5X=.2XlXpXD.` D.f.] T v s g a.e.n y t , X X , t t , ; X = w w ",
", , , , , , , , , : : 6 , = : m L.Y.lX6X1X9X8X8XH.' B.a.' Z f g q J q.V 1 5 5 , ; , , , : : , , 6 6 ",
"9 , ; = , 6 9 9 : = = > w , 8 m k.V.U.U.L.L.Z.L.Z.x.M.x.0.q.e.8.F 0.6.V : O 1 3 6 , ; = : 6 9 t - - ",
"t , = X ; 6 t t ; = X = u u 0 m a E f.I.F.C.F.F.I.F.I.C.I.C.C.s.F b f g O X , u t , X X , t u t = = ",
"u 9 X X , u , u : = = , t t 8 W C d.nXmX>X;X;X;X-X;X;X:X-X;X:X XM.3.N b O X 6 w t t X X 6 t 6 u 1 - ",
"9 , ; ; , 6 9 6 ; ; = : 6 6 0 m S k.,XmX%X$X$X@XOXn.u.n.r.u..X}.n.4.Z f - = , t 9 , ; ; : 6 9 6 1 - ",
", = , t = : 6 ; ; , 6 : ; 6 8 E H 9.*X*XOX|.#X|.5.%.5X=.I q m.u.5.6.H k y 6 = 6 , = 6 9 ; : t ; : , ",
"= ; t i , ; ; = > t u , = X ; E H B d.f.t.d.t.Z ( fXhX>.$ N t.H 3.N m b p w = , = ; t u , ; ; X 6 w ",
"X 6 t t t ; X X w t u , ; X O Q F e.MXmX:X-X&Xt.3XhX1.X.S OXOXT.x.7.Q V j t - o X , t t 9 ; X X 6 e ",
"X t t 9 u ,   ; t , , 3 ; X o Q 6.z.>XbX%X$X|.d.fX2.&.x {.#X.X{.u.0.D M y , t X X 9 6 , t ,   = 6 6 ",
", 6 , , , , > , , , , : ; , : W D x.>XbX%X#Xz.5XdX-.$ y..X.X.X{.u.5.7.b , , 5 > , , , , 6 : , 7 > 5 ",
"9 = ; ; = , u , ; : : ; 6 9 0 m J r.>XvX%X}.' rX1.@.x N b L 5.{.u.6.D f ; : : 3 t ; ; , ; 6 t 9 ; ; ",
"t 9 ; X ; 6 t u X = = = w p i Y S Z T.XXM.4.=.2.<.>.:.:.O.h S j.4.S Z f O - 1 i u 6 = X ; 6 t i ; = ",
"t 6 = X ; 6 u u , X   , u u 9 W K N B.G.D v ,.*.,.2.<.&.* B t.F C Z p.f = = 5 t t 6 X X ; 6 u t : - ",
"6 , O = , 6 8 6 w X   3 u , < Q F q.=XbXx.s P # I >.*.X.C |. XM.z.e.7.f o - 6 t 9 , = ; , 6 6 9 , ; ",
", , , , , , : ; > , , : > > : E D k.=XvXOX~.N.k.%.;.X.v N.oX~.N.j.9.H k 5 5 ; : ; , , , , , , ; 1 < ",
"X , 9 u , ; = = ; u i , X O : m 3.q.&X=X^.|.N.A ,.o.$ 5.N.N.N.j.j.9.p.z 0 3 , = X , 9 t 6 ; = = , 6 ",
"X , t u 6 = X X , u u , = X < Q 6.B ] | ] p.T +.@.% c F J ' 7.A V Z D M u i ;   X , t t 6 ; X X , 3 ",
"; , 6 9 6 ; = = w 9 t , ; = : Q J a.uXcX[.(.A O.* J ^.^.^.].].P.P.q.7.l 0 y : . X , 9 t 6 ; = = 6 t ",
", ; , 6 6 , ; ; 6 , , ; > ; 9 V S l.zXxX<Xb.U +.v v.!.+X~.Q.!.v.c.J Z M 6 , 5 5 ; ; 6 6 6 , ; = 6 6 ",
"6 ; , , o , u 6 = ; = - > w t V 9.l.zXxX].) I & v././././.Q.Q.v.c.q.D f < o 5 t y = , , = , t 9 ; - ",
"t 6 = X : 9 t t : = = : t u 8 E J K ).aXJ.& @ #.W.^.E.E.E.E.b.c.k.q.F b o ; 5 0 t , = X , 6 9 9 - = ",
"9 t X   6 t 6 t 6 =   , u u 8 V J N $.%.( & P $.$.$.$.$.) ' ) _ F D G k . . 6 , t t X   6 9 6 t , : ",
"6 6 = X , 6 , 6 , = X : u 6 7 W J $.cXjXyX'.'.'.'.`.'.'.`.`.(.(.J.e.7.a = = t u w 6 = X , 6 , 9 w > ",
", ; , 6 ; , , : : , , : > , , E B _ uXpX6XyX_._.)._.).).).).J.J.A.A M 8 5 ; : - 7 ; 6 9 ; , 6 ; > r ",
"; = t u ; = , = > t i , = = 8 W E ^ } | %.|  .} } } | } [ [ g.` ` Q Y l a u = ; ; = t i ; ; 6 = > w ",
"o : t u 6 ; = = , t i , X X : E V.9XNXNXgX0XqX8X6XD.D.D.f. ./ ~ R V.l.Z d y = X X ; t i 6 ; X = w w ",
"X 6 t t t ; . = 6 t 9 , ; X o W k.Z.lXO./ G.7XK.] T _ _ ( M s s f 0.t.E d e 6   X 9 t 9 t ;   = , 9 ",
", , 7 , , , , , , 6 9 : = : 6 u S Z.R.R.R.U.L.Z.x.w.q.e.9.6.S F S d.7.a 1 1 : : : , , , , , , ; < 1 ",
"6 : ; ; , 6 6 6 : ; ; > , 6 6 , b D k.x.l.e.l.w.w.t.t.w.w.w.w.e.7.7.b 6 : ; : w 6 : ; ; ; 6 6 6 : ; ",
"t , X X ; 6 t t ; X   : u t , = o i M Q Q E n n n W Q W E m E m Z z y o X = , u t , X X ; 6 9 u ; o ",
"t , X X ; 9 u t , X X : i i 6 =   5 u y 0 0 7 X 8 : 0 a <     1 y i 1 ;   = , t t , X X ; 9 t u ; = ",
"6 , = = , 6 6 8 : ; ; , 9 9 , , + - w w w 5 O   : : , u 9   X 9 9 1 1 : X = 6 t 9 , = ; : 6 9 6 , ; ",
", , , , , , , ; 6 6 6 6 , ; , 6 5 ; > > 6 > , 1 6 6 , : , 6 w , , > , 6 6 , , , 6 , , , , , : : , , ",
"= , 9 9 , ; ; ; , 9 t 6 X = , 6 i y : : ; ; 6 y , , ; = , i t ; ;   = 6 t e : o X , t t 6 ; = = > w ",
"X , t u 6 X X X , t t 6 = X ; , u u < . X ; u p 6 ; X = 6 t 6 6 = = = : i t , X X , t t 6 = = = r w ",
"X , 9 6 9 6 X ; t 9 6 6 ; X , y 6 6 6 = X 6 6 w 6 6 X ; t 6 9 9 -   6 e w 6 6 X - , 6 e w 6   = t w ",
"; ; 9 6 9 6 X ; 6 9 6 6 = X , 9 6 6 6 = X 6 6 6 5 6 X ; e 6 w 9 -   , w 5 5 1 =   6 5 e 6 , X = w 6 "
};
