/* XPM */
static char *player1737040764[] = {
/* columns rows colors chars-per-pixel */
"50 50 228 2 ",
"   c #0B0C08",
".  c #0E100F",
"X  c #10120F",
"o  c #0F1210",
"O  c #141413",
"+  c #1B1A1E",
"@  c #181614",
"#  c #100F10",
"$  c #201E1F",
"%  c #232418",
"&  c #1E1D21",
"*  c #000D35",
"=  c #010E3B",
"-  c #011235",
";  c #01133D",
":  c #09163E",
">  c #04193D",
",  c #0B1A3D",
"<  c #313131",
"1  c #010E43",
"2  c #031542",
"3  c #0A1642",
"4  c #061944",
"5  c #091B46",
"6  c #041649",
"7  c #061B4A",
"8  c #0B1E4A",
"9  c #0A164A",
"0  c #111E46",
"q  c #0C1D51",
"w  c #051A50",
"e  c #111E53",
"r  c #0C2144",
"t  c #0D214C",
"y  c #062247",
"u  c #142345",
"i  c #11234E",
"p  c #19264C",
"a  c #1B2A4D",
"s  c #172A49",
"d  c #0D2352",
"f  c #0D2951",
"g  c #042152",
"h  c #132551",
"j  c #152954",
"k  c #1A2C55",
"l  c #132659",
"z  c #152A5A",
"x  c #1B2C59",
"c  c #1A2754",
"v  c #1D3159",
"b  c #222B4C",
"n  c #222945",
"m  c #23324F",
"M  c #232D53",
"N  c #212E58",
"B  c #233253",
"V  c #23345B",
"C  c #2B395D",
"Z  c #283458",
"A  c #323C5B",
"S  c #162B62",
"D  c #293861",
"F  c #323F63",
"G  c #28405F",
"H  c #33415C",
"J  c #3B465C",
"K  c #3A585A",
"L  c #344263",
"P  c #3A4665",
"I  c #3C4A65",
"U  c #3C4D6C",
"Y  c #384767",
"T  c #265C7E",
"R  c #47525D",
"E  c #565756",
"W  c #48494C",
"Q  c #625C5C",
"!  c #424E6D",
"~  c #495669",
"^  c #575D69",
"/  c #455272",
"(  c #4B5572",
")  c #4C5973",
"_  c #4A5C7B",
"`  c #535E7A",
"'  c #515B74",
"]  c #5C636C",
"[  c #54627B",
"{  c #5A647C",
"}  c #5D6A7C",
"|  c #586674",
" . c #4A606D",
".. c #666C7A",
"X. c #72777C",
"o. c #787678",
"O. c #6B7070",
"+. c #7E807F",
"@. c #858779",
"#. c #147493",
"$. c #206A85",
"%. c #485D82",
"&. c #505D80",
"*. c #586583",
"=. c #547288",
"-. c #50758C",
";. c #626B83",
":. c #656886",
">. c #697285",
",. c #6B758C",
"<. c #67778A",
"1. c #757D88",
"2. c #757A94",
"3. c #687C97",
"4. c #817F84",
"5. c #1490B6",
"6. c #4E878E",
"7. c #57848E",
"8. c #5D8795",
"9. c #79828B",
"0. c #6B8598",
"q. c #7A8394",
"w. c #7D8A9B",
"e. c #798398",
"r. c #7E90A0",
"t. c #848C8D",
"y. c #898789",
"u. c #94928B",
"i. c #838A93",
"p. c #828B9C",
"a. c #868B97",
"s. c #928F93",
"d. c #8D9B9C",
"f. c #8A9397",
"g. c #92929A",
"h. c #9B9B9B",
"j. c #949798",
"k. c #9CA59D",
"l. c #A1A29D",
"z. c #888DA3",
"x. c #8B93A4",
"c. c #8A96A5",
"v. c #969CA3",
"b. c #9A9CA1",
"n. c #939BAB",
"m. c #999BAC",
"M. c #9595A3",
"N. c #8B93B0",
"B. c #999EB1",
"V. c #9BA5A8",
"C. c #9BA3B2",
"Z. c #9EA8B7",
"A. c #ACACA5",
"S. c #A2A9AA",
"D. c #ACACAD",
"F. c #A6A5A6",
"G. c #ADB0AC",
"H. c #B3B5AE",
"J. c #A4A7B3",
"K. c #A4AAB5",
"L. c #ABACB3",
"P. c #A7ACBA",
"I. c #AEB2B2",
"U. c #ACB3BA",
"Y. c #AFBBBA",
"T. c #B4B4B4",
"R. c #B2B5BB",
"E. c #BBBDBC",
"W. c #B8B9B9",
"Q. c #C4BDBA",
"!. c #BEC8BE",
"~. c #C1C3BE",
"^. c #B3AFC2",
"/. c #ACB4C3",
"(. c #A3B3C3",
"). c #B5BBC5",
"_. c #BABBC2",
"`. c #B5B7C4",
"'. c #A6ABC1",
"]. c #CBBCC6",
"[. c #BCC2CB",
"{. c #BEC1C7",
"}. c #AEDAD7",
"|. c #B7D3D8",
" X c #BEC7D8",
".X c #BED9E0",
"XX c #BBE5E3",
"oX c #C4C4C4",
"OX c #CACBC6",
"+X c #C4C6CB",
"@X c #C4CBCC",
"#X c #CBCDCA",
"$X c #C8C7C7",
"%X c #D2CECD",
"&X c #CDD3CB",
"*X c #D4D5CD",
"=X c #C6CED4",
"-X c #CECFD3",
";X c #C6CAD8",
":X c #CBD3D3",
">X c #CFD8D4",
",X c #D3D2D3",
"<X c #D3D9D5",
"1X c #DADAD6",
"2X c #D4D5DC",
"3X c #D5D9DC",
"4X c #DCDDDC",
"5X c #DAD5DC",
"6X c #D1CFD0",
"7X c #E4D9D6",
"8X c #DCE1DB",
"9X c #D9E1D7",
"0X c #E2E3DD",
"qX c #E6E7DE",
"wX c #F2E5DF",
"eX c #D3DAE3",
"rX c #DADCE1",
"tX c #D4D4E1",
"yX c #E5DBE3",
"uX c #DFE2E3",
"iX c #DDEDE2",
"pX c #E3E3E3",
"aX c #EAE6E3",
"sX c #E5E5EA",
"dX c #EBE6EB",
"fX c #ECEBEB",
"gX c #E4E9E7",
"hX c #EEF1EE",
/* pixels */
"5 2 i j 4 4 8 5 5 h h 5 ; 8 8 5 k 8 2 9 e 6 8 k 9 d 8 2 e k h 5 8 6 5 8 i h 5 5 2 5 t h t 4 4 5 w g ",
"; 5 t h d 5 ; 4 t h h t 4 ; 5 i l h 8 3 ; 0 h 5 y ; - = 5 r t 8 4 : 2 h j t 8 2 6 4 h j i 5 2 4 g g ",
"= t h h j 5 * 2 i i i t 2 ; 4 h f t t - - 5 Z Z D h 8 c V x x d * ; 6 d x h 5 ; ; 4 h k i 2 ; = d f ",
"; 8 i t h 4 = 4 8 i t 8 2 ; 2 i 5 z 8 ; p A /.$X{.:X,X_.S.s.X.~ a > 4 8 j h 5 6 2 8 t i i 2 4 ; i i ",
"8 5 8 8 4 5 t 5 5 8 8 8 8 8 8 2 t 5 5 N p.] W E O.o.o.Q < @ & W >.a 5 t 5 t 5 7 5 8 5 5 5 5 8 8 0 5 ",
"j 2 5 5 ; 8 x t 4 4 4 2 i j t 4 6 2 c 1.g.%   @ @ @     O O   < i.( t 6 2 : i d i 8 4 2 2 8 i h : : ",
"j 8 2 2 4 h j j 4 = ; 8 h j t 4 1 4 M 1.y.% X O #   O X o #   & i.{ h 6 : : 5 j h 0 4 ; 9 i j h : > ",
"h h = * 8 h h j i 4 ; t k i 8 5 - > M ..h.< @ + + @ & & & < W X.T.~ f 7 = - e d j 8 = = 5 h h i 3 : ",
"h 8 2 > 8 9 B ..:.....Z N %.h q - 0 u ~ S.D.y.y.o.1.g.h.h.~.&XpX'.B u 2 6 8 5 h t t 5 2 5 8 t t t 8 ",
"5 4 r t 8 q Y w.t.f.m.;.*.<.A 8 l q 9 N e.>X0X0XfX%XgXiX<XaXdX+X_ u 5 t t t 5 5 5 5 8 t 8 8 8 5 8 8 ",
"; 8 h s 8 7 Y ).#X=X[.a.9.J 0 r V q w 1 c ,.U.=XOX#X<X@X{.].J.) ; 2 7 t j t 5 4 ; 5 f j t 2 4 ; t d ",
"= 8 h j t 2 k (.6X+X+Xv...3 2 d s i 5 1 : b { 2.f.0.=.=.3.*._ C 5 ; 4 d f v 5 ; - 5 h j t 4 ; ; d h ",
"; 5 c h 5 4 3 | ,X5X-XW.2.V w f 4 l t > ' c.).`.P.V.i.1.c.S././.w.Y : q h c 5 ; 2 4 h h 8 2 2 2 d d ",
"8 q 8 5 5 d 4 I j.T.E.$X:Xc.Z d j L ` ..[.4X1XrXuX3X1XF.OX9X4XsXuX).,.U p 5 e 4 4 8 8 8 5 5 5 8 8 8 ",
"i e 2 ; 8 t d ! K.{.gXgX8X$X>.Z >.g.U.V.4XfXgXuX9XpXoXi.V.7XwX8XhXhX+XU.q.B > z t t 2 4 4 t h h 9 3 ",
"i 8 9 4 4 d l k x ' :XdXdX<XJ.a.E.T.l.h.,XpXfXuXqX_.*.#.$.N.yXiXhXfXoXE.3Xn.V d j 8 2 ; 8 h j j 4 ; ",
"h h 2 - t h t h e = M ;X9X9XW.D.%X$Xb.F.,X0X0X4X<XM.T 5.#.<.].3XwX<XE.oX7X;X` h h i 2 * h h 5 k 0 3 ",
"t 8 2 5 5 t t 8 5 5 ; b Y.:Xu.9.L.m.( e.@X*X~.+X&XI.-.3.0.V.*X{.G.).q.v.L.T...i h 5 4 2 8 8 c 8 8 5 ",
"8 4 8 i 4 4 h 4 > t q 8 I w.} ~ >.C 0 D q.W.=X9X7X,X=XtX$XOX9X4XK.` k ' 9.G.i.C 7 7 f d 4 4 j ; 8 8 ",
"2 4 h j 5 4 4 ; y t j d ; r _ I v 8 5 3 r z. X:X<XrXpXyXpX*X$X].,.3 5 ! Q y.f.p.L : d z 7 3 4 4 t t ",
"; t h h h 2 - 2 t h z 8 2 = 2 h x d t = 5 F n.{.}.|.:XXX}.}.Y.9.M * : [ b.T.oX3X/.) p k h 5 = = t f ",
"; i i t j 5 ; 2 j 8 5 i 5 = 8 l 5 z w 2 k { 1.1.8.8.6.6.6.-.=.e.*.C , [ `.,X1X0XsXU.F 5 h 3 ; 9 t t ",
"8 8 8 5 8 8 4 8 h 0 4 5 8 8 3 8 i 4 t t ( n.b.b.d.d.d.9.y.M.V.l.B./ k Y B.6X4X8XgXeX&.t i 5 4 5 g y ",
"i 2 4 5 4 8 j 8 ; 5 5 5 5 j t > 6 5 > r F >.O.u.A.E.H.O.l.].F.@.X.H 7 i a.E.1XeXoXn.F 8 2 5 k 8 5 4 ",
"j t 5 ; 4 i z j ; 2 2 2 t v h ; 2 2 8 z / v.9.W E s.E.o.U.t.E y.J.( 8 7 D x._.oXE.m.M 6 6 8 h x 2 4 ",
"h t 2 ; 2 t j i 8 ; - 8 z j t 8 ; 2 t t ) h.u.X.~ ..p.>.2.^ E u.s.( j 6 0 a.T.!.OX).! 4 6 i j h 5 ; ",
"t 8 2 2 5 t i t i 2 ; t j 8 8 t ; 2 t t z.R.h.9.D : i k u H ..O.i.>.t 5 L C.$X,XOX@X*.u > t j e 0 8 ",
"5 8 t 5 t 8 r 2 5 t 8 8 4 5 5 8 h 2 5 B /.pX<XK.D 4 6 6 8 P C.+X-Xq.i 7 C ,.R.U.S.).*.p 8 8 5 5 0 9 ",
"2 5 i h t 2 2 ; 5 h k 5 = 4 8 5 j j 4 p V.W.V.q.t 5 6 2 8 L d.W.).( r d i I <.q.q.N.&.h 4 8 2 6 5 e ",
"; 8 h j t 2 ; ; t h j t 2 ; 2 i z d 5 C 9.9.9.*.s ; = 4 5 / 1.s.h.{ 5 g x s u v u C x h 8 8 - ; i h ",
"2 t t h t 4 4 4 i t t t 4 ; 5 h 8 h i *.K.k.| *.s 5 ; 4 t U | R.E.C.k z j 8 4 2 2 3 i j h 4 ; ; 8 i ",
"5 5 5 t t 5 4 4 t t t 5 4 8 8 8 h 4 5 2.!.V.K %.j 8 7 4 y U R j.u.M.Z 8 9 i t 7 5 > t t 7 8 t 4 t t ",
"t 5 8 5 ; e k t 4 2 4 4 t j t 2 7 6 u a.9.f. .[ y t z t u | 9.j.h.U.) 2 6 5 5 j h 4 5 t 2 t j t 3 : ",
"f t 4 ; 5 i i i 5 4 ; 4 h h t 2 ; 2 p R.oX@XK.q.Z y l d s z.Y.:X4XrXw.s 2 : t 8 h 8 2 ; 5 t i h 3 4 ",
"i h ; = t i 8 h t ; - 4 j h t 5 = ; B tXhXgXuXD.*.u j h H C.{.,XpX4XZ.M = = p h h h ; = t i 8 h 8 9 ",
"t t 2 ; 8 i 8 i 5 2 2 8 h i 8 5 4 - B eXfX0XpXQ.x.a t h [ K.oX#X1X4X=X/ ; ; i e i t 2 ; 8 t 8 i t 7 ",
"8 2 r t 5 5 8 5 4 t t 5 5 t t 4 t 2 a tXdXuX4XQ.J.P 5 7 [ U.$X*X1X0XeX,.h 8 5 8 t 2 8 t 4 5 i 5 7 g ",
"4 4 f k 4 4 8 2 5 h h 8 2 2 5 8 x d Y 2XgXsXuX*XT.*.4 ; ! R.OX#X<X0XyXz.V i ; 5 2 4 h k 4 2 8 4 7 d ",
"; 3 i z t 2 2 ; t h h t 2 2 5 i j k r.7X0XpXsX8XR.:.4 4 ! W.oXoX3X0XpXZ.V f > 1 ; 5 j j t 4 ; 2 d d ",
"; e h h h 4 = 4 i i t t 2 - 2 j 8 k  XaX7XpXuXsX$X:.2 2 ! T.E.E.+X~.oXx.k h t 2 - t h h h 4 * 4 t h ",
"8 8 8 8 t 8 5 4 8 t 8 5 2 8 8 8 q b rXqX0XsXsXuXU.( 4 5 H V.S.F.D.D.I.w.a 6 t r 8 8 8 t 8 5 5 5 5 8 ",
"t 8 4 4 5 t t t 5 4 4 4 8 i t 4 2 u U.1X4XrX8XuXP.I f 6 0 q.J.Y.T.I.E.a.s 6 q 5 t 8 4 2 5 t t t 5 3 ",
"i 8 ; ; 4 t h j 4 ; ; 7 h j t 4 ; , >.g.h.h.k.W.U.A d S = b x.V.F.D.E.P.P 6 8 x h 8 ; ; 5 i h h 3 : ",
"h 5 ; ; 4 i j j 5 ; - 8 k j t 2 * p '._.D.H.D.v.z.s x z e - n ,.U.#X1X3X,.: t z h 8 ; ; 5 t h h 5 ; ",
"h 7 2 2 5 t i t 5 4 2 8 i i t 8 ; u b.l.A.oXtXm.P 3 t j i - 4 N ,.C.n.c.) > r t h 8 2 ; 5 t t t 8 4 ",
"r 8 r t 5 t 5 5 t t t 8 8 4 5 t h *._.T.G.v.x.M 2 h 5 > t t 8 9 3 k k s i t 7 7 8 r t t t 7 5 5 8 7 ",
"2 8 h h 8 2 2 2 8 i j t 4 2 4 t C ;XgX4X{.) h x q 8 5 > 4 j x 8 9 2 3 4 d z 5 2 2 5 i h t 2 4 ; 8 f ",
"- 5 h h t 4 ; ; 5 j j 8 ; ; 4 5 B P._.v.n 5 z j 8 2 - 6 d d t t 4 - 2 t f j 8 = ; 5 h j t 4 ; 4 g d ",
"6 5 i t h t ; 2 i h t t 2 ; 8 i h j j 5 2 t t d t 8 ; 4 d t t i 2 = 8 f f y t ; = i t f t t = 4 t d ",
"4 5 t t t t 2 4 t i t t 2 ; t i 8 d t 2 ; t t t t 8 ; 4 h t h t 3 = t d y t e 2 ; t y f t t = 4 d t "
};
