/* XPM */
static char *_9163f4252304a58ea3863e91b322d7bh07C3unQh6DkYrt3[] = {
/* columns rows colors chars-per-pixel */
"50 50 246 2 ",
"   c #001F6E",
".  c #032376",
"X  c #022A73",
"o  c #052679",
"O  c #032A7C",
"+  c #092A7B",
"@  c #092776",
"#  c #09367C",
"$  c #133879",
"%  c #032C6C",
"&  c #001E87",
"*  c #002582",
"=  c #012B85",
"-  c #092B83",
";  c #012C8B",
":  c #04258B",
">  c #013986",
",  c #0D3886",
"<  c #01328B",
"1  c #0A338A",
"2  c #053D8B",
"3  c #0A3D8B",
"4  c #073584",
"5  c #143B82",
"6  c #12348C",
"7  c #143C8B",
"8  c #193F87",
"9  c #032D93",
"0  c #092995",
"q  c #023D95",
"w  c #0B3992",
"e  c #023D9B",
"r  c #0E3B9C",
"t  c #053498",
"y  c #123B92",
"u  c #113C9E",
"i  c #1C329F",
"p  c #0739A2",
"a  c #123CA1",
"s  c #1D3FA3",
"d  c #08438A",
"f  c #1E4B8E",
"g  c #184389",
"h  c #054493",
"j  c #094595",
"k  c #0A4995",
"l  c #03439C",
"z  c #094699",
"x  c #03499A",
"c  c #134A93",
"v  c #1B4B93",
"b  c #1B4E99",
"n  c #164693",
"m  c #1A529A",
"M  c #224D92",
"N  c #204D9E",
"B  c #245498",
"V  c #204D8E",
"C  c #0543A2",
"Z  c #0748A9",
"A  c #1542A4",
"S  c #1D42A5",
"D  c #1C45AE",
"F  c #174CA8",
"G  c #0658AA",
"H  c #1B51A7",
"J  c #1C53A9",
"K  c #1D59A5",
"L  c #1E4FB1",
"P  c #0158BB",
"I  c #1854B1",
"U  c #0D44B7",
"Y  c #2040A5",
"T  c #2B5CA6",
"R  c #2257AD",
"E  c #235AAE",
"W  c #275CA6",
"Q  c #2656B0",
"!  c #255DB2",
"~  c #295FB5",
"^  c #2857B1",
"/  c #0364BE",
"(  c #0A6BBE",
")  c #0769B6",
"_  c #1666B8",
"`  c #0B7ABE",
"'  c #0773BD",
"]  c #167EB3",
"[  c #1A7EB5",
"{  c #167CBD",
"}  c #1C7DBC",
"|  c #1174BE",
" . c #1776AE",
".. c #2B63AA",
"X. c #2463A6",
"o. c #2663B4",
"O. c #2963B5",
"+. c #2D6AB4",
"@. c #2465BC",
"#. c #2A64BA",
"$. c #276BBA",
"%. c #2B6ABB",
"&. c #2669B5",
"*. c #306AB6",
"=. c #336DBA",
"-. c #2670BD",
";. c #2A72BD",
":. c #237DBA",
">. c #2E78B7",
",. c #3273B8",
"<. c #065DC6",
"1. c #0C5AC5",
"2. c #045DCC",
"3. c #0959CA",
"4. c #1957C5",
"5. c #0C59D4",
"6. c #044FC2",
"7. c #0263C4",
"8. c #0B64C2",
"9. c #0C6DC4",
"0. c #0361CD",
"q. c #0868C6",
"w. c #156AC6",
"e. c #0D72C4",
"r. c #0B78C4",
"t. c #0E72C9",
"y. c #0779C0",
"u. c #1375C5",
"i. c #147BC5",
"p. c #1A7EC3",
"a. c #1674CA",
"s. c #1C75CA",
"d. c #157ACB",
"f. c #1C7BCB",
"g. c #1874C7",
"h. c #0561D0",
"j. c #0B6BD6",
"k. c #0D6DDA",
"l. c #066BD5",
"z. c #136CD6",
"x. c #126CDA",
"c. c #1B6CDA",
"v. c #0A71D4",
"b. c #0F70DB",
"n. c #1272DC",
"m. c #1072D3",
"M. c #2A6DC1",
"N. c #2869C4",
"B. c #326DC3",
"V. c #2C72C2",
"C. c #2D7AC5",
"Z. c #2C75C9",
"A. c #2D7ACB",
"S. c #2479C5",
"D. c #3174C4",
"F. c #327AC4",
"G. c #397FC7",
"H. c #3375CA",
"J. c #327BCB",
"K. c #3A7CCB",
"L. c #3972CB",
"P. c #2869D8",
"I. c #2B7BD8",
"U. c #357ED3",
"Y. c #316ADB",
"T. c #0E69E1",
"R. c #1274E1",
"E. c #116FE0",
"W. c #2A7DE6",
"Q. c #357DE9",
"!. c #1B81B6",
"~. c #1B84BA",
"^. c #1684BA",
"/. c #2382BC",
"(. c #2586BA",
"). c #1B82C4",
"_. c #1682C3",
"`. c #248AC2",
"'. c #2E84CD",
"]. c #2886C4",
"[. c #3482CE",
"{. c #3B82CB",
"}. c #378BCE",
"|. c #2A93C9",
" X c #2A89DB",
".X c #3582D3",
"XX c #3B85D4",
"oX c #3985D9",
"OX c #3B8CDC",
"+X c #388BD6",
"@X c #2D96DC",
"#X c #2D9BDB",
"$X c #2895D5",
"%X c #3B93DC",
"&X c #319BDC",
"*X c #3994D9",
"=X c #35A8D8",
"-X c #268DEC",
";X c #2A8BED",
":X c #2C85E8",
">X c #328CED",
",X c #3A86EB",
"<X c #2D94E3",
"1X c #2A95E8",
"2X c #3395E2",
"3X c #339DE3",
"4X c #3B9BE5",
"5X c #3297EA",
"6X c #3B93E4",
"7X c #2D8DF2",
"8X c #2A85F0",
"9X c #338DF3",
"0X c #3989F7",
"qX c #2E90F3",
"wX c #3694F3",
"eX c #3A93F3",
"rX c #3794F8",
"tX c #3DA5E4",
"yX c #3CACE4",
"uX c #3DACEA",
"iX c #39A8E5",
"pX c #3BADEB",
"aX c #4093DF",
"sX c #439CE4",
"dX c #4498E6",
"fX c #4199FB",
"gX c #44A4E9",
"hX c #41A8E7",
"jX c #44B2EE",
"kX c #5DCBFC",
"lX c #6CE6FF",
"zX c #6DEBFF",
"xX c #72E6FF",
"cX c #7AE5FF",
"vX c #74ECFF",
"bX c #7AEDFF",
"nX c #77F1FF",
"mX c #7EF2FF",
"MX c #7AF3FF",
"NX c #7CFAFF",
"BX c #85EDFF",
"VX c #88E8FF",
"CX c #83F3FF",
"ZX c #88F4FF",
"AX c #81F8FF",
"SX c #92EBFF",
/* pixels */
"i : U 1.j.l.T.E.n.m.z.j.l.l.T.T.k.k.k.k.j.j.j.j.j.j.j.j.j.j.j.k.j.l.j.v.v.v.x.z.v.v.b.x.z.c.P.4.* 6 ",
"0 & 4.,XI.;XrX7X-X1X;X;X-X-X7X7X7X7X7X7X7X7X7X7X;X;X;X;X;X;X;X7X-X-X;X;X-X;X;X;X1X1X7X8X>X,XQ.P.: ; ",
"A N.; C ) ) 9.e.` ` u.u.` ` | u.e.e.e.e.e.e.e.e.e.e.u.e.u.u.u.u.r.r.e.e.r.r.e.r.` y.t.w.w._ e 9 w.4.",
"Z ,XZ x } &XtXhXyXpXuXhXuXyXyXhXuXuXuXuXiXiXiXiXuXuXuXuXuXuXuXuXiXuXuXuXuXuXuXuXpXpXuXgXgX*XG G W.c.",
"P  XG ) kXCXZXCXMXnXbXbXMXMXMXmXMXMXMXnXnXnXnXnXnXnXMXMXMXMXMXMXmXmXCXmXNXmXmXmXnXMXAXCXAXcX).G :Xz.",
"P wX) $XMX=X] /.~.).f.f.).~.!.!.[ ] ] ] ] ] ] ] ] !.!.!.~.~.~.~.~.~././.!.~.} } !.~.{ { =XxX$X' ;Xz.",
"3.W./ &XmX|.% X > 2 e p z h 3 3 3 3 3 3 3 3 3 2 2 2 2 2 3 3 3 d 2 2 2 2 2 2 w 3 j h q q S.cX2X9.;Xc.",
"3.0X/ 3XbX(.d X   . : ; - - + @ + + + + o o o . o o . . . . o o O O O O + - - - + o ; e ].cX<X9.;Xn.",
"5.0X8.5XbX(.d +   @ 7 N v g g 8 8 8 5 5 5 5 5 5 5 5 5 5 5 5 5 5 5 5 5 5 g 8 M g 8 + - j /.xX#X' ;XE.",
"2.9Xq.5XcX`.d + $ $ B ..X.B B B B M M M M M M f f f f f f f f f v f M V B B T B M 5 1 j /.xX#Xe.7XR.",
"7.7Xq.5XcX`.k # # g X.,.+.......T T T T T T T T T T T T T T T T W ......+.+.,.+.W b w q ).xX@Xt.;XR.",
"7.-Xq.5XcX].k 4 d m >.}.{.F.F.D.=.=.*.*.*.*.*.*.*.*.+.+.*.*.*.*.+.+.,.;.F.C.}.C.&.K r e ).cX2X9.7XR.",
"/ ;X8.6XcX].z 3 c X.}.sXaXOXOXoXXX{.{.{.{.{.G.{.G.G.G.G.G.G.G.G.G.{.{.{.+X*XsX*X>.o.A e ).xX2X9.7XR.",
"7.>X8.5XcX`.j 3 n K [.6X%X.XU.A.C.V.V.;.;.;.;.;.V.V.;.V.;.;.;.;.V.D.F.C.'.'.*X'.-.E z l ).vX2Xt.7XR.",
"<.>X8.5XzX_.j 6 7 b F.OXXXC.C.V.V.%.$.$.$.$.$.$.&.&.&.&.&.&.&.&.#.%.%.$.V.A.+XA.&.H r e _.lX5Xt.7XR.",
"1.9Xq.1XzX^.h 6 5 b ;.+X[.F.D.%.%.%.#.#.#.#.#.#.#.#.#.#.#.#.#.#.#.%.%.$.C.A.OXU.%.J a C i.lX<X9.7Xn.",
"2.7X9.@XvX~.j 1 7 b V.XXK.D.M.B.%.#.O.O.O.O.O.O.O.O.O.O.O.O.O.O.#.#.%.$.V.A.oXJ.$.R a e ).lX@Xt.7XR.",
"0.7X( &XbX~.j 1 , c V.XXK.D.M.%.$.O.O.O.O.o.o.o.~ ~ ~ o.o.o.o.o.#.#.%.$.V.J.oXJ.$.J a e ).xX@Xt.7XR.",
"0.7X( &XbX~.j 1 , c ;..XJ.V.%.%.#.O.o.o.o.! ! ! ! ! ! ! ! ~ ~ o.#.O.#.$.V.H.oXJ.$.J u e ).xX@Xt.7XR.",
"0.7X( &XbX~.j 1 , c ;..XJ.V.%.$.#.o.o.o.! E E E ! ! ! ! ! ! ~ ~ O.O.O.$.M.Z.oXA.O.J u e ).xX@Xt.7XR.",
"0.7X( &XbX~.j 1 , c $.[.J.V.%.#.#.o.! ! ! E E E E E E E E ! ! ! O.o.O.O.M.Z..XA.O.J r e ).xX@X9.;Xn.",
"h.7X( &XbX~.j 1 , c $.[.J.V.%.#.O.o.! ! E E E E E E E E E E E E ~ o.O.&.M.Z..XZ.$.H r e p.xX@X9.;Xn.",
"h.7X( &XbX~.j 1 , c $.[.J.V.%.#.O.! E E E E R R R R R E E E E E ~ ! O.&.M.Z..XZ.$.H r e p.xX@X9.;Xn.",
"h.7X( &XbX~.h 1 , c $.[.J.M.%.#.O.! E E E R R R R R R E E E E E ~ ! O.&.M.Z..XZ.$.H r e p.xX@X9.;Xn.",
"2.7X( &XbX~.z 1 , c -.[.J.M.%.#.o.! ! ! E E R E R E E E E E E E ! ! O.&.M.Z..XA.O.J u e { xX@X9.7Xk.",
"0.7X( &XbX~.z 1 , c -.[.J.M.%.#.o.! ! ! E E E R R E E E E E E E ! ! o.&.M.Z..XZ.O.J u e { xX@X9.7Xk.",
"0.7X( &XbX~.z 1 , c ;..XJ.M.%.#.o.o.! ! E R R R E R R E R R E E ! ! o.&.M.Z..XZ.$.J u e { xX@X9.7Xx.",
"0.7X( &XbX~.z 1 , c ;..XJ.V.%.#.O.o.! ! E E E E E E R R R E E Q ! ! o.o.M.Z..XZ.$.H u e p.xX@Xt.7Xn.",
"h.7X9.&XbX~.j 1 , c ;..XJ.V.%.#.o.~ ! ! Q E E E E E E E E E Q Q ! ! O.o.M.Z..XZ.O.H u e p.xX@Xt.qXn.",
"h.7X( &XbX~.j 1 , c ;..XJ.V.%.#.O.O.! ! Q Q Q E E E E E E Q Q ! ! o.O.o.M.Z..XZ.O.H u e p.xX@Xt.qXb.",
"h.7X( &XbX~.j 1 , c ;..XJ.M.%.%.#.~ ! ! ! ! Q Q Q Q E E E Q ! ! ! o.O.&.M.Z..XZ.&.F u l ).xX@Xt.7Xk.",
"h.7X( &XvX^.h 1 3 c %.[.J.M.%.#.#.o.! ! ! ! ! E Q E E E Q E ! ~ o.o.O.&.M.Z.U.H.&.F u l ).vX@Xt.7Xk.",
"0.7X( &XvX^.x 2 3 c ;.XXH.B.%.#.&.o.o.o.! E E E ! E E E E E ! o.o.o.O.#.B.H.K.D.#.J r l _.vX@X9.7Xb.",
"0.7X( &XvX~.x 2 d m D.XXH.B.%.#.O.O.&.o.o.o.! ! ! ! ! ! ! ! ! o.o.@.#.N.B.L.K.D.#.F r l _.vX2Xw.7Xk.",
"5.0Xw.4XcX).z w n c V.XXJ.V.-.$.#.#.#.#.O.O.~ ~ ~ ~ ~ ~ ~ ~ ~ o.@.@.@.N.N.H.K.D.N.L a l ).cX6Xw.7Xk.",
"5.0Xw.4XcX).z w n m F.OX[.C.V.M.%.#.#.#.#.#.#.#.#.#.#.~ #.#.#.#.@.@.@.N.N.H..XA.N.I a C p.cX6Xw.7Xk.",
"0.;X) &XvX~.k y n m J.OX.XA.Z.M.M.%.%.$.#.#.#.#.#.#.#.#.#.#.#.#.#.#.%.N.M.A.[.A.M.I A l _.xX2Xa.7Xk.",
"7.;X) #XvX~.k y n m K.dXOXoXU.J.J.D.D.D.D.D.D.D.B.B.V.V.V.V.V.B.B.B.B.H.J.oX*X}.A._ F x _.zX<Xt.7Xk.",
"0.9X( &XvX~.j 6 n W [.dXaXOX+XXX.X.X.X[.J.J.J.J.J.J.J.J.J.J.J.J.K.K.K.U.oXOXsX%XK.@.F l ).cX<Xt.7Xk.",
"0.9X( 3XnX~.j 6 7 v V.+X}.[.C.C.C.C.V.V.V.V.V.V.%.%.M.M.V.-.-.%.M.D.V.D.J.oX*X}.D.! u q { xX@Xu.qXk.",
"2.wX( #XMX`.h 1 # n X.-.-.-.$.&.&.&.&.o.&.o.o.o.o.o.o.o.o.o.&.&.o.&.&.o.$.C.F.F.$.F u q [ vX@Xe.qXk.",
"0.;X( 3XvX`.j * . 3 K o.o.! ! Q ! Q R R Q Q ^ Q Q Q Q Q Q Q Q Q Q Q Q ~ %.D.F.F.~ F u q { xX$X9.rXb.",
"2.9X9.4XCX`.q ; 1 y F L D D D D S S s s s s s s Y Y Y Y Y S Y S A A A A D L J J A p t 9 p.cX X9.9Xk.",
"2.9X8.%XbX~.> < > > < < ; < < < < < = = = = = * * * * * * * * * = = = = ; = > 4 < < t < ).cXOX8.9Xk.",
"0.:X_ &XMXjX|.].(.(.(.`.].|.`.`./././././.:.:.:.:.:.:.:././././.[ [ } :.:.:.!.[ } :.;. .=XlX}._ >Xj.",
"<.:XG ].vXNXCXCXCXAXAXCXZXZXAXAXAXAXCXCXCXCXCXCXCXCXCXCXCXCXCXCXmXCXBXBXBXBXmXNXcXBXSXVXNXlX/.G 9Xx.",
"3.0Xe h |.iXtXgXyXyXtXtXsX4XiXiXiXiXtXtXtXtXtXtXtXtXtXtXtXtXtXtXtXgXgXgXgXgXiXiXiXuXsXgX=X|.G C ,Xx.",
"U Y.t l ) i.d.g.i.i.u.a.S.f.d.d.d.i.i.i.g.g.g.u.u.u.u.u.u.u.u.u.u.g.s.s.s.a.i.i.r.d.a.a.d.| Z e Y.1.",
"9 9 N.,XfXrXeXeXwXwXrXeXeXeXwXwXwXeXrXeXrXrXrXrXeXeXeXeXeXeXeXwXwXwXeXeXeXwXwXwXwXeXrXeXrX9X,XP.: 9 ",
"6 * Z 1.1.<.<.<.<.<.2.2.<.<.<.<.<.<.<.<.<.<.<.<.<.<.<.<.<.<.<.<.0.<.<.<.<.0.0.7.<.<.2.<.2.<.6.p & : "
};
